!!!!SEGMENT: pl-kk--kk-i-7--057-001_cadeac-pierre--missa-ad-placitum-kyrie.krn
!!!cenid: 16xx:891
!!!COM: Cadéac, Pierre
!!!COM-rism: pe30006011
!!!CDT: ~1500-~1599
!!!CNT: German
!!!OTL: Missa ad Placitum – Kyrie
!!!PDT:
!!!AGN: Sacred; Mass
!!!SMS-siglum: PL-Kk
!!!SMS-shelfmark: Kk.I.7
!!!NIFC-rismID: 300258134
!!!URL-scan: http://repozytorium.nifc.pl/skany/pl-kk-nut--i-7
!!!ONB-nifc: UWAGA: C (skan 0055-0056, s.103-104), A (0139-0140, s.99-101), T(0216-0217, s.95-96), B(0303, s.92-93). Części Mszy: 1. Kyrie, 2. Et in terra, 3. Sanctus
!!!SMS-variant:
!!!SMS-altvar:
**kern	**text	**kern	**text	**kern	**text	**kern	**text
*part4	*part4	*part3	*part3	*part2	*part2	*part1	*part1
*staff4	*staff4	*staff3	*staff3	*staff2	*staff2	*staff1	*staff1
*I"BASSVS.	*	*I"TENOR.	*	*I"ALTVS.	*	*I"CANTVS.	*
*I'B	*	*I'T	*	*I'A	*	*I'S	*
*clefF4	*	*clefC4	*	*clefC3	*	*clefC1	*
*k[]	*	*k[]	*	*k[]	*	*k[]	*
*M2/1	*	*M2/1	*	*M2/1	*	*M2/1	*
*met(c|)	*	*met(c|)	*	*met(c|)	*	*met(c|)	*
=1	=1	=1	=1	=1	=1	=1	=1
!LO:TX:t=Miſsa ad Placitum.	!	!LO:TX:t=Miſsa ad Placitum.	!	!	!	!	!
00r	.	1.G/	Ky-	00r	.	0r	.
*	*	*2\right	*	*	*	*	*
.	.	2A\	-ri-	.	.	.	.
=2-	=2-	=2-	=2-	=2-	=2-	=2-	=2-
!	!	!	!	!	!	!LO:TX:t=P:problem:kreska pseudotaktowa	!
.	.	2B\	-e	.	.	1r	.
.	.	2G/	.	.	.	.	.
.	.	1.c\	e-	.	.	1.g\	Ky-
=3-	=3-	=3-	=3-	=3-	=3-	=3-	=3-
!	!	!	!	!LO:TX:t=P:problem:kreska pseudotaktowa	!	!	!
00r	.	.	.	0r	.	.	.
*	*	*	*	*	*	*2\right	*
.	.	4B\	-lei-	.	.	2a\	-ri-
.	.	4A\	.	.	.	.	.
.	.	2G/	.	.	.	2bn\	-e
.	.	2B\	.	.	.	2g\	.
=4-	=4-	=4-	=4-	=4-	=4-	=4-	=4-
.	.	1.A\	.	1.c\	Ky-	1.cc\	e-
*	*	*	*	*2\right	*	*	*
.	.	4G/	.	2d\	-ri-	4b\	.
!	!	!	!	!	!	!LO:TX:t=P:problem:kreska pseudotaktowa	!
.	.	4F/	.	.	.	4a\	.
=5-	=5-	=5-	=5-	=5-	=5-	=5-	=5-
!LO:TX:t=P:problem:kreska pseudotaktowa	!	!	!	!	!	!	!
0r	.	2E/	.	2e\	-e	2g\	.
.	.	2F/	.	2c\	e-	2.a\	.
!	!	!	!	!LO:TX:t=P:problem:kreska pseudotaktowa	!	!	!
.	.	1D/	.	1f\	-lei-	.	.
.	.	.	.	.	.	4g/	.
.	.	.	.	.	.	4a/	.
.	.	.	.	.	.	4b/	.
=6-	=6-	=6-	=6-	=6-	=6-	=6-	=6-
!	!	!	!	!LO:TX:t=P:problem:cezura na 1. linii	!	!	!
1.C/	Ky-	2C/	.	2e,<\	-son	2cc\	.
.	.	2G/	.	2e\	Ky-	1g\	-lei-
.	.	1A\	.	2e\	-ri-	.	.
!LO:TX:t=P:problem:kreska pseudotaktowa	!	!	!	!	!	!	!
2D\	-ri-	.	.	4d\	-e	2f/	.
.	.	.	.	4c\	.	.	.
=7-	=7-	=7-	=7-	=7-	=7-	=7-	=7-
!	!	!LO:TX:t=P:problem:kreska pseudotaktowa	!	!	!	!LO:TX:t=P:problem:kreska pseudotaktowa	!
2E\	-e	1G/	-son	2B/	.	1g\	-son
!LO:TX:t=P:problem:kreska pseudotaktowa	!	!	!	!	!	!	!
2C/	.	.	.	2.c/	.	.	.
1.F\	e-	0r	.	.	.	2r	.
.	.	.	.	4B/	.	.	.
.	.	.	.	1A/	.	1c/	Ky-
=8-	=8-	=8-	=8-	=8-	=8-	=8-	=8-
4E\	-lei-	.	.	4G/	.	2d/	.
!LO:TX:t=P:problem:kreska pseudotaktowa	!	!	!	!	!	!	!
4D\	.	.	.	4F/	.	.	.
2C/	.	2rF	.	2G/	.	2e/	-ri-
!LO:TX:t=P:problem:kreska pseudotaktowa	!	!	!	!	!	!LO:TX:t=P:problem:kreska pseudotaktowa	!
2E\	.	2G/	Ky-	1c\	e-	2c/	-e
=9-	=9-	=9-	=9-	=9-	=9-	=9-	=9-
1D\	.	2A/	.	.	.	1f/	e-
!	!	!LO:TX:t=P:problem:kreska pseudotaktowa	!	!	!	!	!
.	.	2F/	-ri-	2B/	.	.	.
!LO:TX:t=P:problem:kreska pseudotaktowa	!	!	!	!LO:TX:t=P:problem:kreska pseudotaktowa	!	!	!
1C/	-son	1.G/	-e	1c\	-lei-	4e/	.
.	.	.	.	.	.	4f/	.
.	.	.	.	.	.	4g/	.
.	.	.	.	.	.	4a/	.
=10-	=10-	=10-	=10-	=10-	=10-	=10-	=10-
0r	.	.	.	2d\	-son	2b\	.
.	.	2E/	e-	2e\	.	1cc\	-lei-
!	!	!	!	!LO:TX:t=P:problem:cezura na 2. linii	!	!	!
.	.	2F/	-lei-	1d\,<	.	.	.
.	.	2G/	.	.	.	2b\	.
=11-	=11-	=11-	=11-	=11-	=11-	=11-	=11-
!	!	!	!	!	!	!LO:TX:t=P:problem:kreska pseudotaktowa	!
!LO:TX:t=P:problem:kreska pseudotaktowa	!	!	!	!LO:TX:t=P:problem:kreska pseudotaktowa:między nutą a kropką	!	!LO:TX:t=P:problem:cezura na 3. linii	!
1r	.	2C/	.	1.e\	Ky-	1cc\,<	-son
.	.	1c\	.	.	.	.	.
*	*	*	*	*	*	*	*ij
1G\	Ky-	.	.	.	.	1g\	Ky-
.	.	2B\	.	1d\	-ri-	.	.
=12-	=12-	=12-	=12-	=12-	=12-	=12-	=12-
!	!	!LO:TX:t=P:problem:kreska pseudotaktowa	!	!	!	!	!
2A\	-ri-	1c\	-son	.	.	2e/	.
!LO:TX:t=P:problem:kreska pseudotaktowa	!	!	!	!	!	!	!
2F\	-e	.	.	1c\	-e	2f/	-ri-
!	!	!	!	!	!	!LO:TX:t=P:problem:kreska pseudotaktowa	!
1.G\	.	1rA	.	.	.	1d/	-e
.	.	.	.	4B/	.	.	.
.	.	.	.	4A/	.	.	.
=13-	=13-	=13-	=13-	=13-	=13-	=13-	=13-
.	.	2rF	.	2B/	e-	1g\	e-
!LO:TX:t=P:problem:kreska pseudotaktowa	!	!	!	!	!	!	!
*	*	*	*ij	*	*	*	*
2E\	e-	2G/	Ky-	1c\	-lei-	.	.
2F\	-lei-	2A\	-ri-	.	.	2f/	-lei-
!	!	!	!	!LO:TX:t=P:problem:kreska pseudotaktowa	!	!	!
2G\	.	2B\	-e	2B/	.	2d/	.
=14-	=14-	=14-	=14-	=14-	=14-	=14-	=14-
!LO:TX:t=P:problem:kreska pseudotaktowa	!	!	!	!	!	!LO:TX:t=P:problem:cezura na 2. linii	!
1C/	.	1G/	e-	2.c\	.	2e,</	-son
*	*	*	*	*	*	*	*Xij
.	.	.	.	.	.	2.cc\	e-
.	.	.	.	4d\	.	.	.
1C/	.	2.c\	-lei-	1e\	.	.	.
.	.	.	.	.	.	4b/	.
.	.	.	.	.	.	4a/	.
!	!	!	!	!	!	!LO:TX:t=P:problem:kreska pseudotaktowa	!
!	!	!	!	!	!	!LO:TX:b:t=Miſsa\nAd Placitum	!
.	.	4B\	.	.	.	4g/	.
=15-	=15-	=15-	=15-	=15-	=15-	=15-	=15-
!	!	!	!	!	!	!LO:LB:g=original	!
2D\	.	2A\	.	2d\	.	2f/	.
2E\	.	2G\	.	2c\	.	1g\	-lei-
!	!	!	!	!LO:TX:t=P:problem:kreska pseudotaktowa	!	!	!
1D\	.	1A\	.	1d\	-son.	.	.
.	.	.	.	.	.	2f/	.
=16-	=16-	=16-	=16-	=16-	=16-	=16-	=16-
!LO:TX:t=P:problem:kreska pseudotaktowa	!	!LO:TX:t=P:problem:kreska pseudotaktowa	!	!	!	!LO:TX:t=P:problem:kreska pseudotaktowa	!
0GG/;	-son	1G/	-son	2r	.	1g\	-son.
*	*	*	*Xij	*	*	*	*
.	.	.	.	2d\	Chri-	.	.
!	!	!LO:LB:g=original	!	!	!	!	!
.	.	2r	.	1.g\	-ste	1r	.
.	.	2G/	Chri-	.	.	.	.
=17-	=17-	=17-	=17-	=17-	=17-	=17-	=17-
00r	.	1.c\	.	.	.	2r	.
!	!	!	!	!LO:TX:t=P:problem:kreska pseudotaktowa	!	!	!
!	!	!	!	!LO:TX:b:i:t=Miſsa\nAd Placitum	!	!	!
.	.	.	.	2f\	.	2g/	Chri-
!	!	!	!	!LO:LB:g=original	!	!	!
.	.	.	.	2e\	.	1.cc\	-ste
.	.	2B\	-ste	2d\	e-	.	.
=18-	=18-	=18-	=18-	=18-	=18-	=18-	=18-
.	.	2A/	e-	2c\	-lei-	.	.
.	.	2G/	.	2.d\	.	2b\	.
.	.	2F/	-lei-	.	.	2a\	.
.	.	.	.	4c/	.	.	.
.	.	2G/	.	2B/	.	1g\	e-
=19-	=19-	=19-	=19-	=19-	=19-	=19-	=19-
00r	.	1D/	.	2A/	.	.	.
.	.	.	.	1d\	.	2f/	.
!	!	!LO:TX:t=P:problem:kreska pseudotaktowa	!	!	!	!	!
.	.	1A\	-son	.	.	1e/	-lei-
.	.	.	.	2c\	.	.	.
=20-	=20-	=20-	=20-	=20-	=20-	=20-	=20-
!	!	!	!	!LO:TX:t=P:problem:kreska pseudotaktowa	!	!LO:TX:t=P:problem:kreska pseudotaktowa	!
.	.	2r	.	1d\	-son	0.d/	-son
*	*	*	*ij	*	*	*	*
.	.	2D/	Chri-	.	.	.	.
.	.	2G/	.	1rc	.	.	.
.	.	2F/	-ste	.	.	.	.
=21-	=21-	=21-	=21-	=21-	=21-	=21-	=21-
00rG	.	2.G/	e-	2rA	.	.	.
.	.	.	.	2G/	x-	.	.
.	.	4A/	.	.	.	.	.
.	.	4B/	.	2d\	-te	1rdd	.
.	.	4G/	.	.	.	.	.
.	.	2A/	-lei-	2c\	e-	.	.
=22-	=22-	=22-	=22-	=22-	=22-	=22-	=22-
!	!	!LO:TX:t=P:problem:kreska pseudotaktowa	!	!LO:TX:t=P:problem:kreska pseudotaktowa	!	!	!
.	.	1G/	-son	1d\	-lei-	2re	.
*	*	*	*Xij	*	*	*	*
.	.	.	.	.	.	2d/	x-
.	.	2r	.	2G/	.	2g\	-te
.	.	2D/	X-	2.d\	.	2f/	.
=23-	=23-	=23-	=23-	=23-	=23-	=23-	=23-
00rG	.	2G/	-te	.	.	1g\	e-
.	.	.	.	4B/	.	.	.
.	.	2G/	e-	1e\	.	.	.
.	.	1F/	-lei-	.	.	1a\	-lei-
.	.	.	.	2d\	.	.	.
=24-	=24-	=24-	=24-	=24-	=24-	=24-	=24-
!	!	!LO:TX:t=P:problem:kreska pseudotaktowa	!	!LO:TX:t=P:problem:kreska pseudotaktowa	!	!LO:TX:t=P:problem:kreska pseudotaktowa	!
.	.	00E/	-son	1e\	-son	00g\	-son
.	.	.	.	2rA	.	.	.
*	*	*	*	*	*ij	*	*
.	.	.	.	2B/	x-	.	.
=25-	=25-	=25-	=25-	=25-	=25-	=25-	=25-
00r	.	.	.	2c/	.	.	.
.	.	.	.	2B/	.	.	.
.	.	.	.	4G/	.	.	.
.	.	.	.	4A/	.	.	.
.	.	.	.	4B/	.	.	.
.	.	.	.	4c/	.	.	.
=26-	=26-	=26-	=26-	=26-	=26-	=26-	=26-
.	.	00r	.	2d/	.	2r	.
.	.	.	.	2B/	-te	2d/	Chri-
.	.	.	.	2c\	e-	2e/	.
.	.	.	.	2d\	-lei-	2f/	-ste
=27-	=27-	=27-	=27-	=27-	=27-	=27-	=27-
!LO:TX:t=P:problem:kreska pseudotaktowa	!	!	!	!LO:TX:t=P:problem:cezura na 2. linii	!	!	!
0r	.	.	.	2G,</	-son	4g\	.
*	*	*	*	*	*Xij	*	*
.	.	.	.	.	.	4a\	.
.	.	.	.	2g\	Chri-	4b\	.
!	!	!	!	!	!	!LO:TX:t=P:problem:kreska pseudotaktowa	!
.	.	.	.	.	.	4g\	.
.	.	.	.	2f\	.	4a\	e-
.	.	.	.	.	.	4b\	.
.	.	.	.	2e\	-ste	1cc\	.
=28-	=28-	=28-	=28-	=28-	=28-	=28-	=28-
!	!	!	!	!LO:TX:t=P:problem:kreska pseudotaktowa	!	!	!
1GG/	Chri-	1.G/	Ky-	1d\	e-	.	.
.	.	.	.	.	.	2b\	.
1.C/	-ste	.	.	2.c\	-lei-	2cc\	.
.	.	2G/	-ri-	.	.	2.cc\	-lei-
.	.	.	.	4d\	.	.	.
=29-	=29-	=29-	=29-	=29-	=29-	=29-	=29-
.	.	2.A\	-e	2e\	.	.	.
.	.	.	.	.	.	4b\	.
2D/	.	.	.	2f\	.	1a\	.
.	.	4B\	.	.	.	.	.
2AA/	e-	2c\	.	2e\	.	.	.
2BB/	.	2B\	.	2d\	.	1g\	.
=30-	=30-	=30-	=30-	=30-	=30-	=30-	=30-
2C/	.	1A\	.	2e\	.	.	.
!LO:TX:t=P:problem:kreska pseudotaktowa	!	!	!	!	!	!	!
2D/	.	.	.	4d\	.	2f/	.
.	.	.	.	4c\	.	.	.
!LO:LB:g=original	!	!	!	!LO:TX:t=P:problem:kreska pseudotaktowa	!	!LO:TX:t=P:problem:kreska pseudotaktowa	!
2.GG/	-lei-	2G/	e-	1d\	-son.	1g\	-son
.	.	2.B\	-lei-	.	.	.	.
!LO:TX:t=P:problem:kreska pseudotaktowa	!	!	!	!	!	!	!
4AA/	.	.	.	.	.	.	.
=31-	=31-	=31-	=31-	=31-	=31-	=31-	=31-
!	!	!	!	!LO:TX:t=P:problem:kreska pseudotaktowa	!	!	!
!	!	!	!	!LO:TX:b:t=2.	!	!	!
!	!	!	!	!LO:TX:a:t=2	!	!	!
2BB/	.	.	.	0r	.	2r	.
.	.	4A/	.	.	.	.	.
!LO:TX:t=P:problem:kreska pseudotaktowa	!	!	!	!	!	!	!
2C/	.	1G/	.	.	.	2g\	Ky-
1AA/T	.	.	.	.	.	1a\	.
.	.	2F/	.	.	.	.	.
=32-	=32-	=32-	=32-	=32-	=32-	=32-	=32-
!	!	!	!	!	!	!LO:TX:t=P:problem:kreska pseudotaktowa	!
!LO:TX:t=P:problem:kreska pseudotaktowa	!	!LO:TX:t=P:problem:kreska pseudotaktowa	!	!	!	!LO:SIC:v:custos:g	!
1GG/	-son.	1G/	-son	2r	.	1b\	-ri-
.	.	.	.	2d\	Ky-	.	.
!	!	!LO:TX:t=P:problem:kreska pseudotaktowa	!	!	!	!LO:LB:g=original	!
!	!	!LO:SIC:v:custos:G	!	!	!	!	!
00r	.	0r	.	1e\	-ri-	2g\	-e-
.	.	.	.	.	.	2.cc\	-lei-
=33-	=33-	=33-	=33-	=33-	=33-	=33-	=33-
.	.	.	.	2f\	.	.	.
.	.	.	.	.	.	4b\	.
.	.	.	.	2f\	-e	2a\	.
.	.	2r	.	2e\	.	2.g/	.
.	.	2G/	Ky-	1d\	e-	.	.
.	.	.	.	.	.	4f/	.
=34-	=34-	=34-	=34-	=34-	=34-	=34-	=34-
.	.	1A\	-ri-	.	.	1e/	.
!	!	!	!	!LO:TX:t=P:problem:kreska pseudotaktowa	!	!	!
.	.	.	.	2c\	-lei-	.	.
!LO:TX:t=P:problem:kreska pseudotaktowa	!	!	!	!	!	!	!
1r	.	2B\	-e	2.d\	.	2d/	.
.	.	2G/	.	.	.	1g\	.
.	.	.	.	4c/	.	.	.
=35-	=35-	=35-	=35-	=35-	=35-	=35-	=35-
2r	.	2.d\	.	2B/	.	.	.
!LO:TX:t=P:problem:kreska pseudotaktowa	!	!	!	!	!	!	!
2D\	Ky-	.	.	2A/	.	2f/	.
.	.	4c\	.	.	.	.	.
!LO:TX:t=P:problem:kreska pseudotaktowa	!	!	!	!LO:TX:t=P:problem:kreska pseudotaktowa	!	!LO:TX:t=P:problem:kreska pseudotaktowa	!
1E\	-ri-	2B\	.	1G/	.	1g\	-son
.	.	1c\	e-	.	.	.	.
=36-	=36-	=36-	=36-	=36-	=36-	=36-	=36-
1F\	-e	.	.	2.A/	.	0r	.
.	.	1d\	-lei-	.	.	.	.
.	.	.	.	4B/	.	.	.
2D\	.	.	.	2.c/	.	.	.
!LO:TX:t=P:problem:kreska pseudotaktowa	!	!	!	!	!	!	!
2G\	e-	4c\	.	.	.	.	.
!	!	!LO:TX:t=P:problem:kreska pseudotaktowa	!	!	!	!	!
.	.	4B\	.	4B/	.	.	.
=37-	=37-	=37-	=37-	=37-	=37-	=37-	=37-
!	!	!	!	!LO:TX:t=P:problem:kreska pseudotaktowa	!	!	!
!	!	!	!	!LO:N:vis=1	!	!	!
2F\	.	2A/	.	0d\	-son	2r	.
!LO:TX:t=P:problem:kreska pseudotaktowa	!	!	!	!	!	!	!
2E\	-lei-	1G/	.	.	.	2g\	Ky-
1D\	.	.	.	.	.	1a\	-ri-
.	.	2F/	.	.	.	.	.
=38-	=38-	=38-	=38-	=38-	=38-	=38-	=38-
!LO:TX:t=P:problem:cezura na 1. linii	!	!LO:TX:t=P:problem:kreska pseudotaktowa	!	!	!	!LO:TX:t=P:problem:kreska pseudotaktowa	!
2GG,</	-son	1G/	-son	2r	.	1b\	-e
1G\	Ky-	.	.	1d\	Ky-	.	.
.	.	2r	.	.	.	2g\	.
!LO:TX:t=P:problem:kreska pseudotaktowa	!	!	!	!	!	!	!
2C/	-ri-	2G/	Ky-	2e\	-ri-	2.cc\	e-
=39-	=39-	=39-	=39-	=39-	=39-	=39-	=39-
!	!	!	!	!LO:TX:t=P:problem:kreska pseudotaktowa	!	!	!
1F\	-e	1A\	-ri-	1f\	-e	.	.
.	.	.	.	.	.	4b\	.
.	.	.	.	.	.	1a\	-lei-
2G\	e-	2B\	-e	2d\	e-	.	.
2C/	.	2c\	e-	2e\	.	1g\	.
=40-	=40-	=40-	=40-	=40-	=40-	=40-	=40-
1D\	-lei-	1A\	-lei-	1d\	-lei-	.	.
.	.	.	.	.	.	2f#X/	.
0GG/;	-son.	0Bn\;	-son.	0d\;	-son.	0g\;	-son.
==	==	==	==	==	==	==	==
*-	*-	*-	*-	*-	*-	*-	*-
!!!RDF**kern: > = above
!!!RDF**kern: < = below
!!!system-decoration: [(s1,s2,s3,s4)]
!!!EED: Andrzej Borzym
!!!EST: 2021-03-17
!!!ENC:Kamil Watkowski
!!!END:2021-03-02
